assets/list-bullet-nut.svg

<svg width="13" height="13" viewBox="0 0 14 14" xmlns="http://www.w3.org/2000/svg">
	<path d="M6.06691 6.44112e-08C5.86603 -0.000105013 5.68763 0.128364 5.62406 0.318907L5.15022 1.74032C4.95891 1.80767 4.77178 1.88489 4.58891 1.97267L3.2485 1.30296C3.06887 1.2132 2.85195 1.24843 2.70997 1.39043L1.39052 2.70979C1.24852 2.85177 1.21328 3.06867 1.30305 3.24829L1.97188 4.58588C1.8839 4.76966 1.80605 4.95761 1.73861 5.14989L0.318927 5.62369C0.128372 5.68726 -0.00010482 5.86565 6.44154e-08 6.06651V7.93257C-0.00010502 8.13344 0.128372 8.31183 0.318927 8.3754L1.74317 8.85011C1.81029 9.04026 1.88737 9.22594 1.97462 9.40774L1.30305 10.7508C1.21328 10.9304 1.24852 11.1473 1.39052 11.2893L2.70997 12.6096C2.85195 12.7516 3.06887 12.7868 3.2485 12.697L4.58891 12.0264C4.7716 12.1137 4.95824 12.1908 5.14931 12.2579L5.62406 13.6811C5.68763 13.8716 5.86603 14.0001 6.06691 14H7.93309C8.13397 14.0001 8.31237 13.8716 8.37594 13.6811L8.85069 12.2551C9.04034 12.1883 9.22609 12.1114 9.40745 12.0246L10.7515 12.697C10.9311 12.7868 11.148 12.7516 11.29 12.6096L12.6095 11.2893C12.7515 11.1473 12.7867 10.9304 12.697 10.7508L12.0272 9.41139C12.115 9.22825 12.1922 9.04079 12.2596 8.8492L13.6811 8.3754C13.8716 8.31183 14.0001 8.13344 14 7.93257V6.06651C14.0001 5.86565 13.8716 5.68726 13.6811 5.62369L12.2587 5.14989C12.1913 4.9589 12.1139 4.77208 12.0263 4.58952L12.697 3.24829C12.7867 3.06867 12.7515 2.85177 12.6095 2.70979L11.29 1.39043C11.148 1.24843 10.9311 1.2132 10.7515 1.30296L9.41474 1.97084C9.23033 1.88268 9.04179 1.8051 8.84887 1.73759L8.37594 0.318907C8.31237 0.128364 8.13397 -0.000105013 7.93309 6.44112e-08H6.06691ZM6.99818 3.73121C8.79631 3.73121 10.2667 5.20152 10.2667 6.99954C10.2667 8.79756 8.79631 10.2642 6.99818 10.2642C5.20004 10.2642 3.73327 8.79756 3.73327 6.99954C3.73327 5.20152 5.20004 3.73121 6.99818 3.73121Z" fill="#31a9f5"/>
</svg>

<svg width="13" height="13" viewBox="0 0 14 14" xmlns="http://www.w3.org/2000/svg"><path d="M6.067 0a.466.466 0 00-.443.319L5.15 1.74a5.57 5.57 0 00-.561.233l-1.34-.67a.467.467 0 00-.539.087L1.39 2.71a.467.467 0 00-.087.538l.669 1.338a5.59 5.59 0 00-.233.564l-1.42.474A.467.467 0 000 6.067v1.866c0 .2.128.379.319.442l1.424.475c.067.19.144.376.232.558l-.672 1.343a.467.467 0 00.088.538l1.319 1.32a.467.467 0 00.538.088l1.34-.67c.184.087.37.164.561.23l.475 1.424c.064.19.242.32.443.319h1.866c.201 0 .38-.128.443-.319l.475-1.426c.19-.067.375-.144.556-.23l1.345.672c.18.09.396.055.538-.087l1.32-1.32a.467.467 0 00.087-.54l-.67-1.339a5.59 5.59 0 00.233-.562l1.421-.474A.467.467 0 0014 7.933V6.067a.466.466 0 00-.319-.443L12.26 5.15a5.609 5.609 0 00-.233-.56l.671-1.342a.467.467 0 00-.087-.538l-1.32-1.32a.467.467 0 00-.538-.087l-1.337.668a5.595 5.595 0 00-.566-.233L8.376.318A.467.467 0 007.933 0H6.067zm.931 3.731A3.277 3.277 0 0110.267 7a3.274 3.274 0 01-3.269 3.264A3.271 3.271 0 013.733 7a3.274 3.274 0 013.265-3.27z" fill="#31a9f5"/></svg>
